X:1
T:Polonaise ur notblad tillhörande Johan Enningers samlingar
R:Polska
O:Småland
S:Johan Enninger
B:Småländsk musiktradition
N:Småländsk musiktradition I:213
Z:till abc Jonas Brunskog
M:3/4
L:1/16
K:F
|:c4 d4 a2>f2|gfed cdef gfed|gfed d2Bd c4:||:ABcA [AF]2[AF]2 [AF]2[AF]2|BcdB [BG]2[BG]2 [BG]2[BG]2|
ABcA [AF]2[AF]2 [AF]2[AF]2|BcdB [BG]2[BG]2 [BG]2[BG]2|A2cA G2BG FGAB|cBAG G2BG F4:|

